img/icon-track.svg

<svg width="30" height="30" viewBox="0 0 30 30" fill="none" xmlns="http://www.w3.org/2000/svg">
<path fill-rule="evenodd" clip-rule="evenodd" d="M8.49016 0.128713C8.37637 0.205191 8.26106 0.34965 8.2211 0.465685C8.11973 0.76017 8.11973 29.2346 8.2211 29.5291C8.30407 29.7701 8.61701 30 8.86199 30C9.10129 30 9.35635 29.8354 9.46199 29.6128C9.54062 29.447 9.55082 27.7694 9.55082 14.9974C9.55082 -0.853548 9.57806 0.315835 9.20395 0.0947813C8.97209 -0.042176 8.72694 -0.0305724 8.49016 0.128713ZM12.6753 1.42591C12.573 1.47168 12.4412 1.58262 12.3823 1.6724C12.2796 1.82922 12.2754 2.35408 12.2754 15.0052V28.1747L12.3979 28.3402C12.4653 28.4312 12.6257 28.5428 12.7544 28.5883C12.9667 28.6634 13.0096 28.6607 13.2178 28.559C13.3603 28.4895 13.4861 28.3692 13.5497 28.2419C13.6463 28.0484 13.6522 27.2947 13.6522 15.0102C13.6524 0.910313 13.6704 1.7068 13.3466 1.49459C13.1386 1.35834 12.8845 1.33232 12.6753 1.42591ZM20.9407 1.38301C20.8726 1.39637 20.7407 1.4868 20.6477 1.58397L20.4785 1.7606V14.9974V28.2342L20.6454 28.4084C20.9537 28.7302 21.4668 28.6833 21.7201 28.3101C21.8216 28.1607 21.8261 27.5931 21.8261 14.9974C21.8261 2.40167 21.8216 1.83415 21.7201 1.68471C21.6119 1.5253 21.2857 1.33631 21.1435 1.35066C21.1 1.35506 21.0087 1.36959 20.9407 1.38301ZM4.47968 5.52736C4.38148 5.57014 4.25626 5.67364 4.20136 5.75738C4.10855 5.89915 4.10163 6.53916 4.10163 15.0184V24.1272L4.26739 24.3047C4.48425 24.5369 4.78096 24.5944 5.06532 24.4595C5.47869 24.2633 5.44928 24.9884 5.44928 14.9974C5.44928 5.03222 5.47676 5.7306 5.0768 5.54078C4.83587 5.42645 4.71745 5.42375 4.47968 5.52736ZM16.7578 6.89471C16.6411 6.95349 16.5086 7.08634 16.4503 7.20308C16.3543 7.39519 16.3478 7.88945 16.3478 14.9974C16.3478 22.1054 16.3543 22.5996 16.4503 22.7917C16.5794 23.0502 16.8988 23.2177 17.1622 23.165C17.4375 23.1099 17.6814 22.8392 17.7238 22.5416C17.7433 22.4052 17.7514 18.918 17.7419 14.7923C17.7261 7.91752 17.7164 7.2795 17.6274 7.15374C17.4045 6.83892 17.0678 6.73865 16.7578 6.89471ZM25.0369 6.83335C24.966 6.84736 24.8275 6.95044 24.7293 7.06232L24.5507 7.26579V15.0003V22.7348L24.7445 22.9463C24.903 23.1193 24.9817 23.1589 25.1773 23.164C25.4693 23.1717 25.6711 23.0704 25.8006 22.8513C25.8906 22.6989 25.8984 22.0728 25.8984 14.9974C25.8984 8.02231 25.8896 7.29421 25.8037 7.1487C25.7515 7.0605 25.665 6.96087 25.6113 6.92735C25.4837 6.84765 25.1995 6.80112 25.0369 6.83335ZM0.377966 10.986C-0.0142583 11.1797 9.70894e-05 11.0273 9.70894e-05 14.9974C9.70894e-05 18.9903 -0.016895 18.819 0.398708 19.0163C0.663315 19.1419 0.943802 19.0845 1.16968 18.8585L1.34774 18.6804V15.0014V11.3225L1.20349 11.1668C0.95265 10.8961 0.680776 10.8366 0.377966 10.986ZM29.0331 10.9863C28.6312 11.1932 28.655 10.9408 28.6535 15.0075L28.6523 18.6804L28.8303 18.8585C29.0562 19.0845 29.3367 19.1419 29.6013 19.0163C30.0169 18.819 29.9999 18.9903 29.9999 14.9974C29.9999 11.0166 30.0152 11.175 29.6128 10.984C29.3769 10.872 29.2542 10.8726 29.0331 10.9863Z" fill="#07FA77"/>
</svg>

<svg width="30" height="30" fill="none" xmlns="http://www.w3.org/2000/svg"><path fill-rule="evenodd" clip-rule="evenodd" d="M8.49.129a.767.767 0 00-.269.337c-.101.294-.101 28.769 0 29.063.083.241.396.471.641.471.24 0 .494-.165.6-.387.079-.166.089-1.844.089-14.616C9.55-.853 9.578.316 9.204.095c-.232-.137-.477-.126-.714.034zm4.185 1.297a.805.805 0 00-.293.246c-.102.157-.107.682-.107 13.333v13.17l.123.165a.881.881 0 00.356.248c.213.075.256.073.464-.029a.747.747 0 00.332-.317c.096-.194.102-.947.102-13.232 0-14.1.018-13.303-.305-13.515a.706.706 0 00-.672-.07zm8.266-.043c-.068.013-.2.104-.293.201l-.17.177v26.473l.167.174a.688.688 0 001.075-.098c.102-.15.106-.717.106-13.313 0-12.595-.004-13.163-.106-13.312-.108-.16-.434-.349-.576-.334a2.761 2.761 0 00-.203.032zM4.48 5.527a.746.746 0 00-.279.23c-.092.142-.1.782-.1 9.261v9.11l.166.177a.66.66 0 00.798.154c.414-.196.384.53.384-9.462 0-9.965.028-9.266-.372-9.456-.241-.115-.36-.117-.597-.014zm12.278 1.368a.784.784 0 00-.308.308c-.096.192-.102.686-.102 7.794s.006 7.603.102 7.795c.13.258.449.426.712.373.276-.055.52-.326.562-.623.02-.137.027-3.624.018-7.75-.016-6.874-.026-7.513-.115-7.638-.223-.315-.56-.415-.87-.26zm8.279-.062c-.071.014-.21.117-.308.23l-.178.203V22.735l.194.211c.158.173.237.213.432.218.292.008.494-.094.624-.313.09-.152.097-.778.097-7.854 0-6.975-.008-7.703-.094-7.848a.774.774 0 00-.193-.222c-.127-.08-.412-.126-.574-.094zM.378 10.986c-.392.194-.378.041-.378 4.011 0 3.993-.017 3.822.399 4.02.264.125.545.067.77-.159l.179-.178V11.323l-.145-.156c-.25-.27-.522-.33-.825-.181zm28.655 0c-.402.207-.378-.045-.38 4.021v3.673l.177.178c.226.226.507.284.771.158.416-.197.399-.026.399-4.019 0-3.98.015-3.822-.387-4.013-.236-.112-.359-.111-.58.002z" fill="#07FA77"/></svg>
